X: 6
T: Here Comes the Sun (3:09) - Horn Lead
C: The Beatles
Z: Digero of Landroval
M: 4/4
Q: 127
K: C maj

% Bar 1
z8  |  z8  |  z8  |  z8  |  z8  |  z8  |  z8  |  z8  |  z2 +mf+ c' +mp+ [^a2z3/2] +mf+ c'2 ^g3/2-  |  
^g2 c' [gz/] ^a3/2 +f+ c'3-  |  
% Bar 11
c'/ z3/2 +mf+ [c'3/2z] [^a2z3/2] c'2 ^g3/2-  |  ^g3/2 z/ +mp+ g +mf+ ^a2 g3  |  
z +f+ c'3/2 z/ ^a2 ^g3-  |  ^g/ z15/2  |  z8  |  z2 +mf+ c' ^g +f+ ^a +mf+ c'3-  |  
c' z +f+ c' +mf+ ^a2 +f+ ^g2 +mf+ f-  |  f ^g2 ^a2 g2 f-  |  f ^d7-  |  
^d/ z3/2 c' ^g +f+ ^a c'3-  |  
% Bar 21
c' z +mf+ c' +f+ ^a2 ^g2 +mf+ f-  |  f c'2 ^a2 ^g2 =g-  |  g8-  |  
g/ z3/2 c' ^a2 c'2 ^g-  |  ^g2 c' g +f+ ^a c'3-  |  c' z +mf+ c' +f+ ^a2 c'2 +mf+ ^g-  |  
^g2 +f+ f +mf+ c'2 ^a +f+ g2-  |  ^g/ z/ c'2 z/ ^a3/2 g3  |  z8  |  z8  |  
% Bar 31
z8  |  z8  |  z2 +mf+ c' ^g +f+ ^a +mf+ c'3-  |  c' z +f+ c' +mf+ ^a2 +f+ ^g2 +mf+ f-  |  
f ^g2 ^a2 g2 f-  |  f ^d7-  |  ^d/ z3/2 c' ^g +f+ ^a c'3-  |  
c' z +mf+ c' +f+ ^a2 ^g2 +mf+ f-  |  f c'2 ^a2 ^g2 =g-  |  g8-  |  
% Bar 41
g/ z3/2 c' ^a2 c'2 ^g-  |  ^g2 c' g +f+ ^a c'3-  |  c' z +mf+ c' +f+ ^a2 c'2 +mf+ ^g-  |  
^g2 +f+ f +mf+ c'2 ^a +f+ g2-  |  ^g/ z/ c'2 z/ ^a3/2 g3  |  z8  |  z8  |  z8  |  z8  |  z8  |  
% Bar 51
z8  |  z8  |  z b3 +mf+ ^a3 ^g-  |  ^g5/2 +f+ f/ +mf+ g/ z/ g/ +f+ ^a/ g3-  |  ^g9/2 z7/2  |  
z3 +mf+ b3 +mp+ ^a2-  |  ^a +mf+ ^g7/2 [fz/] g/ z/ g/ a/ g-  |  ^g15/2 z/  |  z5 b3  |  
+mp+ ^a3 +mf+ ^g3 f g/ z/  |  
% Bar 61
+mp+ ^g/ +mf+ ^a/ g7-  |  ^g/ z13/2 b-  |  b2 ^a3 ^g3  |  f ^g/ z/ g/ ^a/ g5-  |  
^g5/2 z11/2  |  z b3 ^a3 ^g-  |  ^g2 +f+ f +mf+ g/ z/ g/ ^a/ g3-  |  ^g4 z4  |  z8  |  z8  |  
% Bar 71
z8  |  z6 c' ^g  |  +f+ ^a +mf+ c'4 z +f+ c' +mf+ a-  |  ^a +f+ ^g2 +mf+ f2 g2 a-  |  
^a ^g2 f2 ^d3-  |  ^d9/2 z3/2 c' ^g  |  +f+ ^a c'4 z +mf+ c' +f+ a-  |  
^a ^g2 +mf+ f2 c'2 a-  |  ^a ^g2 =g5-  |  g9/2 z3/2 c' ^a-  |  
% Bar 81
^a c'2 ^g3 c' g  |  +f+ ^a c'4 z +mf+ c' +f+ a-  |  ^a c'2 +mf+ ^g3 +f+ f +mf+ c'-  |  
c' ^a +f+ ^g5/2 z/ c'2 z/ a/-  |  ^a ^g3 z4  |  z8  |  z6 +mf+ c' ^a-  |  ^a c'2 ^g3 c' g  |  
+f+ ^a c'4 z +mf+ c' +f+ a-  |  ^a c'2 +mf+ ^g3 +f+ f +mf+ c'-  |  
% Bar 91
c' ^a +f+ ^g5/2 z/ c'2 z/ a/-  |  ^a ^g3 z4  |  z8  |  z5 c'2 z/ ^a/-  |  ^a ^g3 z4  |  z8  |  z8  |  
z8  |  z8  |  z8  |  z8  |]

